X:221
T:Dusky Night. JC.226
T:A-Hunting We Will Go, aka. JC.226
R:air
S:John Clare,Poet,Helpstone (1793-1864)
N:MR. Bar 8,following the dotted qu,a qu in Ms is given here as a
N:semi-qu..
N:No TS given: 2/4 added.
N:Song text exists. See Deacon.
O:England
A:Northamptonshire
Z:vmp.P. Headford
M:6/8
L:1/8
Q:3/8=120
K:D
A|d2dA2G|\
F>EFD2A|B2AG2F|F3E2E|A2AB2B|!
c>BcA2A|d2de2e|f>efd2A|(B>cd) (e>fg)|(A>B)cd2A|!
B2B A>GA|D3zzD/D/|A2AA2A|” crot”A3zzA/A/|d2d d>ef|!
d3zzA/A/|(B>c)d (e>f)g|(A>B)cd2A/A/|B2G A>GA|D3zz|]

